truck-off-road-off.svg

<svg fill="currentColor" viewBox="0 0 24 24"><path d="M2.39 1.73 1.11 3l5.85 5.85-6.227 1.1.867 4.92 1.97-.34c.14.78.58 1.47 1.24 1.93.65.46 1.45.64 2.24.5.78-.14 1.48-.58 1.95-1.23.44-.66.62-1.46.5-2.23l1.78-.33 3.09 3.09c-.31.07-.61.15-.91.24l-1.38.47C10.04 17.65 7.9 18 5.75 18h-.09c-1.06 0-2.08.42-2.83 1.17L2 20v2h18.11l.73.73.73-.73H22v-.43l.11-.11-.11-.11zm5 11.05c.32.22.54.57.61.96.07.4 0 .8-.25 1.12-.22.33-.57.55-.96.64-.4.05-.79-.04-1.12-.27a1.48 1.48 0 0 1-.62-.97c-.05-.39.02-.79.25-1.12a1.505 1.505 0 0 1 2.09-.36M22 18.5 19.5 16H22zm-3.6-3.58c.16 0 .31-.02.46-.04.79-.14 1.48-.59 1.94-1.24.46-.64.64-1.46.5-2.24l1.97-.35-.52-2.95c-.2-1.1-1.25-1.82-2.32-1.6l-1.97.32-3.65-3.42-5.42.96.34 1.88zm-7.27-9.34 3.45-.61 2.36 2.12-5.37.95zm6.95 4.86c.39-.07.8.02 1.12.25.33.23.55.58.62.97s-.02.8-.25 1.12c-.23.33-.57.55-.97.62-.39.07-.79-.02-1.1-.25-.34-.23-.57-.58-.63-.97-.07-.39.02-.79.24-1.12.23-.33.58-.56.97-.62"/></svg>

<svg  viewBox="0 0 24 24" fill="currentColor"><path  d="M2.39 1.73L1.11 3L6.96 8.85L.733 9.95L1.6 14.87L3.57 14.53C3.71 15.31 4.15 16 4.81 16.46C5.46 16.92 6.26 17.1 7.05 16.96C7.83 16.82 8.53 16.38 9 15.73C9.44 15.07 9.62 14.27 9.5 13.5L11.28 13.17L14.37 16.26C14.06 16.33 13.76 16.41 13.46 16.5L12.08 16.97C10.04 17.65 7.9 18 5.75 18H5.66C4.6 18 3.58 18.42 2.83 19.17L2 20V22H20.11L20.84 22.73L21.57 22H22V21.57L22.11 21.46L22 21.35V21.35L2.39 1.73M7.39 12.78C7.71 13 7.93 13.35 8 13.74C8.07 14.14 8 14.54 7.75 14.86C7.53 15.19 7.18 15.41 6.79 15.5C6.39 15.55 6 15.46 5.67 15.23C5.34 15 5.12 14.66 5.05 14.26C5 13.87 5.07 13.47 5.3 13.14C5.53 12.82 5.87 12.6 6.27 12.53C6.66 12.46 7.06 12.55 7.39 12.78M22 18.5L19.5 16H22V18.5M18.4 14.92C18.56 14.92 18.71 14.9 18.86 14.88C19.65 14.74 20.34 14.29 20.8 13.64C21.26 13 21.44 12.18 21.3 11.4L23.27 11.05L22.75 8.1C22.55 7 21.5 6.28 20.43 6.5L18.46 6.82L14.81 3.4L9.39 4.36L9.73 6.24L18.4 14.92M11.13 5.58L14.58 4.97L16.94 7.09L11.57 8.04L11.13 5.58M18.08 10.44C18.47 10.37 18.88 10.46 19.2 10.69C19.53 10.92 19.75 11.27 19.82 11.66C19.89 12.05 19.8 12.46 19.57 12.78C19.34 13.11 19 13.33 18.6 13.4C18.21 13.47 17.81 13.38 17.5 13.15C17.16 12.92 16.93 12.57 16.87 12.18C16.8 11.79 16.89 11.39 17.11 11.06C17.34 10.73 17.69 10.5 18.08 10.44Z"/></svg>
